tools/download-figma-icons/icons/action/solar-panel.svg

<svg width="24" height="24" viewBox="0 0 24 24" fill="none" xmlns="http://www.w3.org/2000/svg">
<path fill-rule="evenodd" clip-rule="evenodd" d="M12.9999 22.002V16.6661H20.9998C21.0438 16.6661 21.0808 16.6461 21.1228 16.6411L21.8538 22.002H12.9999ZM2.8771 16.6411C2.9191 16.6461 2.9561 16.6661 3.00009 16.6661H11V22.002H2.14611L2.8771 16.6411ZM11 1.99734V7.33425H4.14608L4.87307 1.99734H11ZM19.8538 7.33425H12.9999V1.99734H19.1268L19.8538 7.33425ZM12.9999 9.33122H19.9998C20.0438 9.33122 20.0808 9.31222 20.1228 9.30622L20.8538 14.6681H12.9999V9.33122ZM3.87708 9.30622C3.91908 9.31222 3.95608 9.33122 4.00008 9.33122H11V14.6681H3.14609L3.87708 9.30622ZM20.9908 0.864353C20.9238 0.369361 20.4998 0.000366205 19.9998 0.000366205H4.00008C3.50009 0.000366205 3.07609 0.369361 3.00909 0.864353L0.00914055 22.866C-0.0298589 23.152 0.0571398 23.44 0.247137 23.658C0.437134 23.875 0.71113 24 1.00013 24H22.9998C23.2888 24 23.5628 23.875 23.7528 23.658C23.9428 23.44 24.0298 23.152 23.9908 22.866L20.9908 0.864353Z" fill="black"/>
</svg>

<svg width="24" height="24" viewBox="0 0 24 24" fill="none" xmlns="http://www.w3.org/2000/svg"><path fill-rule="evenodd" clip-rule="evenodd" d="M13 22.002v-5.336h8c.044 0 .08-.02.123-.025l.73 5.361H13Zm-10.123-5.36c.042.004.08.024.123.024h8v5.336H2.146l.731-5.36ZM11 1.996v5.337H4.146l.727-5.337H11Zm8.854 5.337H13V1.997h6.127l.727 5.337ZM13 9.331h7c.044 0 .08-.019.123-.025l.73 5.362H13V9.331Zm-9.123-.025c.042.006.08.025.123.025h7v5.337H3.146l.731-5.362ZM20.991.864A1 1 0 0 0 20 0H4a1 1 0 0 0-.99.864l-3 22.002A1 1 0 0 0 1 24h22a1 1 0 0 0 .99-1.134l-3-22.002Z" fill="currentColor"/></svg>
